svg/u2733.svg

<svg viewBox="0 0 128 128" xmlns="http://www.w3.org/2000/svg">
  <path d="M109.53,56.95c-2.82,0-19.89,1.32-36.09,3.17c-0.09,0-0.18-0.09-0.09-0.18 c12.76-10.12,25.79-21.3,27.73-23.24c6.25-6.25,4.05-10.3,2.2-12.15c-3.08-3.08-7.57-2.38-12.15,2.2 c-1.94,1.94-13.12,14.96-23.24,27.73c-0.09,0.09-0.18,0-0.18-0.09c1.85-16.2,3.17-33.27,3.17-36.09c0-8.89-4.4-10.21-7.04-10.21 S56.8,9.42,56.8,18.31c0,2.82,1.32,19.89,3.17,36.09c0,0.09-0.09,0.18-0.18,0.09C49.93,41.9,38.76,28.87,36.82,26.85 c-4.67-4.67-9.07-5.28-12.15-2.2c-1.85,1.85-2.38,4.31-1.41,6.95c0.62,1.67,1.85,3.43,3.61,5.19c1.94,1.94,14.96,13.12,27.73,23.24 c0.09,0.09,0,0.18-0.09,0.18c-16.2-1.85-33.27-3.17-36.09-3.17c-8.8-0.09-10.03,4.31-10.03,6.95c0,2.64,1.32,7.04,10.21,7.04 c2.82,0,19.89-1.32,36.09-3.17c0.09,0,0.18,0.09,0.09,0.18C41.84,78.08,28.9,89.26,26.87,91.19c-1.76,1.85-3.08,3.52-3.61,5.19 c-0.97,2.55-0.44,5.11,1.41,6.95c1.23,1.23,2.73,1.94,4.4,1.94c2.38,0,5.02-1.41,7.75-4.14c1.94-1.94,13.12-14.96,23.24-27.73 c0.09-0.09,0.18,0,0.18,0.09c-1.85,16.2-3.17,33.27-3.17,36.09c0,8.89,4.4,10.21,7.04,10.21s7.04-1.32,7.04-10.21 c0-2.82-1.32-19.89-3.17-36.09c0-0.09,0.09-0.18,0.18-0.09c10.12,12.76,21.3,25.79,23.24,27.73c2.73,2.73,5.37,4.14,7.75,4.14 c1.67,0,3.17-0.7,4.4-1.94c1.85-1.85,4.05-5.9-2.2-12.15c-1.94-1.94-14.96-13.12-27.73-23.24c-0.09-0.09,0-0.18,0.09-0.18 c16.2,1.85,33.27,3.17,36.09,3.17c8.89,0,10.21-4.4,10.21-7.04S118.42,56.95,109.53,56.95L109.53,56.95z" fill="#7CB342"/>
  <path d="M66.51,12.35c-0.59-1.44-2.73-1.48-4.78-0.39 c-1.65,0.88-3.17,2.76-2.07,4.2c1.14,1.49,2.73-0.47,4.2-1.37C65.33,13.89,67.06,13.68,66.51,12.35z" opacity="0.3" fill="#FFFFFF" enable-background="new "/>
  <path d="M31.99,26.04c-0.59-1.44-2.73-1.48-4.78-0.39 c-1.65,0.88-3.17,2.76-2.07,4.2c1.14,1.49,2.73-0.47,4.2-1.37C30.82,27.59,32.54,27.37,31.99,26.04z" opacity="0.3" fill="#FFFFFF" enable-background="new "/>
  <path d="M101.13,25.74c-0.59-1.44-2.73-1.48-4.78-0.39 c-1.65,0.88-3.17,2.76-2.07,4.2c1.14,1.49,2.73-0.47,4.2-1.37C99.97,27.29,101.68,27.07,101.13,25.74z" opacity="0.3" fill="#FFFFFF" enable-background="new "/>
</svg>

<svg viewBox="0 0 128 128" xmlns="http://www.w3.org/2000/svg">
  <defs/>
  <path d="M109.53,56.95 C106.71,56.95 89.64,58.27 73.44,60.12 C73.35,60.12 73.26,60.03 73.35,59.94 C86.11,49.82 99.14,38.64 101.08,36.7 C107.33,30.45 105.13,26.4 103.28,24.55 C100.2,21.47 95.71,22.17 91.13,26.75 C89.19,28.69 78.01,41.71 67.89,54.48 C67.8,54.57 67.71,54.48 67.71,54.39 C69.56,38.19 70.88,21.12 70.88,18.3 C70.88,9.41 66.48,8.09 63.84,8.09 C61.2,8.09 56.8,9.42 56.8,18.31 C56.8,21.13 58.12,38.2 59.97,54.4 C59.97,54.49 59.88,54.58 59.79,54.49 C49.93,41.9 38.76,28.87 36.82,26.85 C32.15,22.18 27.75,21.57 24.67,24.65 C22.82,26.5 22.29,28.96 23.26,31.6 C23.88,33.27 25.11,35.03 26.87,36.79 C28.81,38.73 41.83,49.91 54.6,60.03 C54.69,60.12 54.6,60.21 54.51,60.21 C38.31,58.36 21.24,57.04 18.42,57.04 C9.62,56.95 8.39,61.35 8.39,63.99 C8.39,66.63 9.71,71.03 18.6,71.03 C21.42,71.03 38.49,69.71 54.69,67.86 C54.78,67.86 54.87,67.95 54.78,68.04 C41.84,78.08 28.9,89.26 26.87,91.19 C25.11,93.04 23.79,94.71 23.26,96.38 C22.29,98.93 22.82,101.49 24.67,103.33 C25.9,104.56 27.4,105.27 29.07,105.27 C31.45,105.27 34.09,103.86 36.82,101.13 C38.76,99.19 49.94,86.17 60.06,73.4 C60.15,73.31 60.24,73.4 60.24,73.49 C58.39,89.69 57.07,106.76 57.07,109.58 C57.07,118.47 61.47,119.79 64.11,119.79 C66.75,119.79 71.15,118.47 71.15,109.58 C71.15,106.76 69.83,89.69 67.98,73.49 C67.98,73.4 68.07,73.31 68.16,73.4 C78.28,86.16 89.46,99.19 91.4,101.13 C94.13,103.86 96.77,105.27 99.15,105.27 C100.82,105.27 102.32,104.57 103.55,103.33 C105.4,101.48 107.6,97.43 101.35,91.18 C99.41,89.24 86.39,78.06 73.62,67.94 C73.53,67.85 73.62,67.76 73.71,67.76 C89.91,69.61 106.98,70.93 109.8,70.93 C118.69,70.93 120.01,66.53 120.01,63.89 C120.01,61.25 118.42,56.95 109.53,56.95 L109.53,56.95 Z" fill="#7CB342"/>
  <path d="M66.51,12.35 C65.92,10.91 63.78,10.87 61.73,11.96 C60.08,12.84 58.56,14.72 59.66,16.16 C60.8,17.65 62.39,15.69 63.86,14.79 C65.33,13.89 67.06,13.68 66.51,12.35 Z" fill="#FFFFFF" opacity="0.3"/>
  <path d="M31.99,26.04 C31.4,24.6 29.26,24.56 27.21,25.65 C25.56,26.53 24.04,28.41 25.14,29.85 C26.28,31.34 27.87,29.38 29.34,28.48 C30.82,27.59 32.54,27.37 31.99,26.04 Z" fill="#FFFFFF" opacity="0.3"/>
  <path d="M101.13,25.74 C100.54,24.3 98.4,24.26 96.35,25.35 C94.7,26.23 93.18,28.11 94.28,29.55 C95.42,31.04 97.01,29.08 98.48,28.18 C99.97,27.29 101.68,27.07 101.13,25.74 Z" fill="#FFFFFF" opacity="0.3"/>
</svg>
